X: 10
T: Swinging on a Gate
C: trad. Irish reel
O: arr. by Tom Morley
R: reel
S: Fiddle Hell Online 2021-11-04
Z: 2022 John Chambers <jc:trillian.mit.edu>
M: 4/4
L: 1/8
K: G
vBd | "G"vgedB G2(AB) | "Am"cABG A(GEG) | "G/B"DG (3(Bcd) g2fg | "C"ea (ag) "D"fd || (ef) | "G" gedB G2(AB) |
"Am"cABG A(GEG) | "C"cABG A(GEG) | "D"DG (GF) "G"G2 :: (3(vBcd) | "G"vg3(a "G/F#"b)ga(uf | "Em"gf)ed B2(uAG) |
"Am"vEAA(B cB)AG | "C"EAAB "D"cd || ef | "G"gfg(a "G/F#"bg)af | "Em"gfed B2(AB) | "Am"cABG A(GEG) | "D"DG (GF) "G"G2 :|


